X: 1271
M: 3/4
L: 1/8
K: G
(E2D2)D2 | D3edc | B3dce | d3def |
g3fga | b3agf | (f2e2)e2 | e2(agfe) |\
(ed)(^cd)(cd) | d(efga)b | g3bab | f2z2 H:|
d'>d' |\
d'2d2_e2 | ^c2d2=c2 | _B2A2G2 | d3def |\
gabdef | gabdef | gabc'd'f | g4 ]
K: C
|: g>^f |\
(gc')(eg)(ce) | G3ceg | fdBagf | ^d2e ^fgf |\
(gc')(eg)(ce) | G3ceg | f(dBag)B | c4 :|
|: Bc |\
dBGg^fg | (ecG)g^fg | fdBdag | f(e^de)f^f |\
(gc')(eg)(ce) | G3ceg | fdBagB | c4 "^D.C.":|

